site/pages/offline/smiley-crying.svg

<?xml version="1.0" encoding="UTF-8"?>
<svg width="32px" height="32px" viewBox="0 0 32 32" version="1.1" xmlns="http://www.w3.org/2000/svg" xmlns:xlink="http://www.w3.org/1999/xlink">
    <!-- Generator: Sketch 41.2 (35397) - http://www.bohemiancoding.com/sketch -->
    <title>smiley_crying</title>
    <defs></defs>
    <g stroke="none" stroke-width="1" fill="none" fill-rule="evenodd">
        <g>
            <g>
                <g>
                    <g>
                        <g>
                            <circle id="Oval" fill="#FFD811" cx="16" cy="16" r="16"></circle>
                            <circle id="Oval" fill="#212121" cx="16" cy="25.2307692" r="4.30769231"></circle>
                            <path d="M19.1938462,27.0769231 C18.56,28.1784615 17.3661538,28.9230769 16,28.9230769 C14.6338462,28.9230769 13.44,28.1784615 12.8061538,27.0769231 C13.4584615,25.9446154 14.6830769,25.2307692 16,25.2307692 C17.3169231,25.2307692 18.5415385,25.9446154 19.1938462,27.0769231 Z" fill="#FC1D42"></path>
                            <path d="M28.4738462,26.0123077 C25.5446154,29.6615385 21.0461538,32 16,32 C7.16307692,32 0,24.8369231 0,16 C0,10.9538462 2.33846154,6.45538462 5.98769231,3.52615385 C3.77846154,6.26461538 2.46153846,9.74769231 2.46153846,13.5384615 C2.46153846,22.3753846 9.62461538,29.5384615 18.4615385,29.5384615 C22.2523077,29.5384615 25.7353846,28.2215385 28.4738462,26.0123077 Z" fill="#424242" opacity="0.2"></path>
                            <path d="M22.1538462,17.1261538 L27.0769231,19.1772308 L27.0769231,27.5347692 L26.8812308,27.7175385 C25.7273846,28.7938462 24.4338462,29.6836923 23.0387692,30.3630769 L22.1538462,30.7932308 L22.1538462,17.1261538 Z" fill="#00D5EC"></path>
                            <path d="M8.96184615,30.3630769 C7.56615385,29.6836923 6.27323077,28.7938462 5.11876923,27.7175385 L4.92307692,27.5347692 L4.92307692,19.1772308 L9.84615385,17.1261538 L9.84615385,30.7932308 L8.96184615,30.3630769 Z" fill="#00D5EC"></path>
                        </g>
                        <path d="M25.5741538,6.42769231 C23.1236923,3.97723077 19.7390769,2.46153846 16,2.46153846" id="light" stroke="#FFFFFF" stroke-width="2" opacity="0.8"></path>
                        <g transform="translate(3.692308, 13.538462)" stroke="#212121">
                            <ellipse id="Oval" stroke-width="2" cx="12.3076923" cy="11.6923077" rx="4.30769231" ry="4.30769231"></ellipse>
                            <path d="M16.1987692,13.5347692 C15.5070769,12.0812308 14.0246154,11.0769231 12.3076923,11.0769231 C10.5895385,11.0769231 9.10646154,12.0830769 8.41476923,13.5378462" stroke-width="2"></path>
                            <polyline points="0 6.15384615 7.38461538 3.07692308 0 0"></polyline>
                            <polyline points="24.6153846 6.15384615 17.2307692 3.07692308 24.6153846 0"></polyline>
                        </g>
                    </g>
                </g>
            </g>
        </g>
    </g>
</svg>

<svg width="32" height="32" viewBox="0 0 32 32" xmlns="http://www.w3.org/2000/svg"><g fill="none" fill-rule="evenodd"><circle fill="#FFD811" cx="16" cy="16" r="16"/><circle fill="#212121" cx="16" cy="25.231" r="4.308"/><path d="M19.194 27.077A3.683 3.683 0 0 1 16 28.923a3.683 3.683 0 0 1-3.194-1.846A3.701 3.701 0 0 1 16 25.23c1.317 0 2.542.714 3.194 1.846z" fill="#FC1D42"/><path d="M28.474 26.012A15.957 15.957 0 0 1 16 32C7.163 32 0 24.837 0 16c0-5.046 2.338-9.545 5.988-12.474a15.887 15.887 0 0 0-3.526 10.012c0 8.837 7.163 16 16 16 3.79 0 7.273-1.316 10.012-3.526z" fill="#424242" opacity=".2"/><path d="M22.154 17.126l4.923 2.051v8.358l-.196.183a15.73 15.73 0 0 1-3.842 2.645l-.885.43V17.126zM8.962 30.363a15.734 15.734 0 0 1-3.843-2.645l-.196-.183v-8.358l4.923-2.05v13.666l-.884-.43z" fill="#00D5EC"/><path d="M25.574 6.428A13.497 13.497 0 0 0 16 2.462" stroke="#FFF" stroke-width="2" opacity=".8"/><g transform="translate(3.692 13.538)" stroke="#212121"><ellipse stroke-width="2" cx="12.308" cy="11.692" rx="4.308" ry="4.308"/><path d="M16.199 13.535a4.309 4.309 0 0 0-7.784.003" stroke-width="2"/><path d="M0 6.154l7.385-3.077L0 0M24.615 6.154l-7.384-3.077L24.615 0"/></g></g></svg>
